X:7393
T:The Tank
O:england
C:The Bosham Band
M:2/4
L:1/16
K:G
|:G4g4|F4e4|A4d2c2|B2A2 G4|
B2c2 d4|c2d2 e4|d4d4|g8:|
|:B4B2c2|d4d4|e2c2 c2A2|G2F2 E2D2|
B4B2c2|d4d4|e2c2 A2F2|G8:|


